src/img/main/Phone.svg

<svg width="19" height="20" viewBox="0 0 19 20" fill="none" xmlns="http://www.w3.org/2000/svg">
<path d="M15.9794 12.8783C15.2927 12.2005 14.4354 12.2005 13.7531 12.8783C13.2327 13.3943 12.7122 13.9102 12.2005 14.435C12.0605 14.5793 11.9424 14.6099 11.7718 14.5137C11.4351 14.33 11.0764 14.1814 10.7528 13.9802C9.24382 13.0313 7.97981 11.8113 6.86013 10.4382C6.30467 9.75609 5.81044 9.02583 5.46491 8.20374C5.39493 8.03758 5.40805 7.92826 5.54364 7.7927C6.06411 7.28983 6.57147 6.77384 7.08319 6.25784C7.79611 5.54071 7.79611 4.70113 7.07882 3.97961C6.67206 3.56857 6.2653 3.16627 5.85855 2.75523C5.43867 2.33544 5.02316 1.91128 4.59891 1.49586C3.91223 0.826824 3.05498 0.826824 2.37268 1.50024C1.84783 2.01623 1.34485 2.54534 0.811252 3.05258C0.31702 3.52047 0.0677169 4.09331 0.0152321 4.76235C-0.0678689 5.85117 0.198929 6.87878 0.575071 7.88015C1.34485 9.95286 2.51701 11.7938 3.93848 13.4817C5.85855 15.7643 8.15039 17.5703 10.8315 18.8734C12.0386 19.4593 13.2895 19.9097 14.6498 19.9841C15.5857 20.0365 16.3993 19.8004 17.0509 19.0702C17.4971 18.5717 18 18.1169 18.4724 17.6402C19.1722 16.9319 19.1766 16.0748 18.4812 15.3751C17.6501 14.5399 16.8148 13.7091 15.9794 12.8783Z" fill="#CFBBAA"/>
</svg>

<svg width="19" height="20" fill="none" xmlns="http://www.w3.org/2000/svg"><path d="M15.98 12.878c-.687-.678-1.545-.678-2.227 0-.52.516-1.04 1.032-1.553 1.557-.14.144-.258.175-.428.079-.337-.184-.696-.333-1.02-.534-1.508-.949-2.772-2.169-3.892-3.542-.555-.682-1.05-1.412-1.395-2.234-.07-.166-.057-.276.079-.411.52-.503 1.027-1.02 1.54-1.535.712-.717.712-1.557-.005-2.278-.407-.411-.814-.814-1.22-1.225-.42-.42-.836-.844-1.26-1.26C3.912.828 3.055.828 2.373 1.5 1.848 2.016 1.345 2.545.81 3.053c-.494.467-.743 1.04-.796 1.71C-.068 5.85.2 6.878.575 7.88c.77 2.073 1.942 3.914 3.363 5.602 1.92 2.282 4.212 4.088 6.893 5.391 1.208.586 2.459 1.037 3.819 1.111.936.052 1.75-.184 2.4-.914.447-.498.95-.953 1.422-1.43.7-.708.705-1.565.01-2.265a676.92 676.92 0 00-2.503-2.497z" fill="#CFBBAA"/></svg>
